X:66
T:New Bo Peep. (p)1651.PLFD.066
T:Piccadilly. (p)1651.PLFD.066
M:6/4
L:1/4
Q:3/4=90
S:Playford, Dancing Master,1st Ed.,1651.
O:England
H:1651.
Z:Chris Partington.
K:C
e/^f/|g3 e3|ded B>cd|cdB A>GA/B/|G3-G2 :|
|:B|c>de e>dc|d B2 G2 B|c>de e>dc|d B2 G2 e/^f/|
g3-g2 ^f/g/|a3-a2 e/^f/|g3-g2 ^f/g/|a3-a2 g/a/|
b2 e e2 ^f|g2 d Bcd| c2 B A2|G3-G3:|
